X:1
T:I Heard the Bells on Christmas Day
M:4/4
L:1/4
K:C
 E| E3/2 ^D/2 E E| F3/2 E/2 F ^F| G c B A| A3/2 G/2 G G| G3/2 F/2 E F|\
 E3/2 D/2 C D| E F G A| B,3/2 D/2 C||
